/* XPM */
static char * east_xpm = {
/* <Values>: width=64 height=64 colors=6 chars_per_pixel=1 */
"64 64 6 1",
/* <Colors> */
"  c #202025", /* Gunmetal Base */
". c #404045", /* Plate Highlight */
"X c #765898", /* Eva Purple */
"o c #52D053", /* Bio-Green */
"+ c #E6770B", /* Safety Orange */
"# c #101015", /* Groove Shadow */
/* <Pixels> */
"################################################################",
"#.XXXXXXXXXXXXXXXXXXXXXXXXXXXXXXXXXXXXXXXXXXXXXXXXXXXXXXXXXXXX.#",
"#.XXXXXXXXXXXXXXXXXXXXXXXXXXXXXXXXXXXXXXXXXXXXXXXXXXXXXXXXXXXX.#",
"#.XX........................................................XX.#",
"#.XX........................................................XX.#",
"#.XX..                                                   ..XX.#",
"#.XX..                                                   ..XX.#",
"#.XX..  oooooooooooooooooooooooooooooooooooooooooooooooo ..XX.#",
"#.XX..  oooooooooooooooooooooooooooooooooooooooooooooooo ..XX.#",
"#.XX..                                                   ..XX.#",
"#.XX..                                                   ..XX.#",
"#.XX........................................................XX.#",
"#.XX........................................................XX.#",
"#.XXXXXXXXXXXXXXXXXXXXXXXXXXXXXXXXXXXXXXXXXXXXXXXXXXXXXXXXXXXX.#",
"#.XXXXXXXXXXXXXXXXXXXXXXXXXXXXXXXXXXXXXXXXXXXXXXXXXXXXXXXXXXXX.#",
"################################################################",
"                                                                ",
"      ++++    ++++    ++++    ++++    ++++    ++++    ++++      ",
"     ++++++  ++++++  ++++++  ++++++  ++++++  ++++++  ++++++     ",
"    ++    ++++    ++++    ++++    ++++    ++++    ++++    ++    ",
"   ++      ++      ++      ++      ++      ++      ++      ++   ",
"  ++        ++      ++      ++      ++      ++      ++      ++  ",
" ++          ++      ++      ++      ++      ++      ++      ++ ",
"                                                                ",
"################################################################",
"#                                                              #",
"#  XX  XX  XX  XX  XX  XX  XX  XX  XX  XX  XX  XX  XX  XX  XX  #",
"#  XX  XX  XX  XX  XX  XX  XX  XX  XX  XX  XX  XX  XX  XX  XX  #",
"#  XX  XX  XX  XX  XX  XX  XX  XX  XX  XX  XX  XX  XX  XX  XX  #",
"#  XX  XX  XX  XX  XX  XX  XX  XX  XX  XX  XX  XX  XX  XX  XX  #",
"#                                                              #",
"# .. .. .. .. .. .. .. .. .. .. .. .. .. .. ..  #",
"# .. .. .. .. .. .. .. .. .. .. .. .. .. .. ..  #",
"#                                                              #",
"################################################################",
"                                                                ",
" ++          ++      ++      ++      ++      ++      ++      ++ ",
"  ++        ++      ++      ++      ++      ++      ++      ++  ",
"   ++      ++      ++      ++      ++      ++      ++      ++   ",
"    ++    ++++    ++++    ++++    ++++    ++++    ++++    ++    ",
"     ++++++  ++++++  ++++++  ++++++  ++++++  ++++++  ++++++     ",
"      ++++    ++++    ++++    ++++    ++++    ++++    ++++      ",
"                                                                ",
"################################################################",
"#.XXXXXXXXXXXXXXXXXXXXXXXXXXXXXXXXXXXXXXXXXXXXXXXXXXXXXXXXXXXX.#",
"#.XXXXXXXXXXXXXXXXXXXXXXXXXXXXXXXXXXXXXXXXXXXXXXXXXXXXXXXXXXXX.#",
"#.XX........................................................XX.#",
"#.XX........................................................XX.#",
"#.XX..                                                   ..XX.#",
"#.XX..                                                   ..XX.#",
"#.XX..  oooooooooooooooooooooooooooooooooooooooooooooooo ..XX.#",
"#.XX..  oooooooooooooooooooooooooooooooooooooooooooooooo ..XX.#",
"#.XX..                                                   ..XX.#",
"#.XX..                                                   ..XX.#",
"#.XX........................................................XX.#",
"#.XX........................................................XX.#",
"#.XXXXXXXXXXXXXXXXXXXXXXXXXXXXXXXXXXXXXXXXXXXXXXXXXXXXXXXXXXXX.#",
"#.XXXXXXXXXXXXXXXXXXXXXXXXXXXXXXXXXXXXXXXXXXXXXXXXXXXXXXXXXXXX.#",
"################################################################"
};