/* XPM */
static char * north_xpm = {
/* <Values>: width=64 height=64 colors=6 chars_per_pixel=1 */
"64 64 6 1",
/* <Colors> */
"  c #080810", /* Void Black */
". c #201030", /* Dark Structure */
"X c #402060", /* Mid Structure */
"o c #00F0FF", /* Cyber Cyan */
"+ c #FF00AA", /* Neon Magenta */
"# c #FFFFFF", /* White Hot */
/* <Pixels> */
"                                                                ",
" .....  XXXX .....  oooo  .....   XXXX  .....  ++++  ...   ",
" .....  XXXX .....  oooo  .....   XXXX  .....  ++++  ...   ",
" .....  XXXX .....  oo#o  .....   XXXX  .....  ++#+  ...   ",
" .....  XXXX .....  oooo  .....   XXXX  .....  ++++  ...   ",
" .....  XXXX .....  oooo  .....   XXXX  .....  ++++  ...   ",
"                                                                ",
"................................................................",
"XXXXXXXXXXXXXXXXXXXXXXXXXXXXXXXXXXXXXXXXXXXXXXXXXXXXXXXXXXXXXXXX",
"................................................................",
"                                                                ",
"  oo  oooooo  oo  XXXX   oooo   XXXX   oo  +++++  oo   XXXX   oo",
"  oo  oooooo  oo  XXXX   oooo   XXXX   oo  +++++  oo   XXXX   oo",
"  oo  oo##oo  oo  XXXX   oooo   XXXX   oo  ++#++  oo   XXXX   oo",
"  oo  oooooo  oo  XXXX   oooo   XXXX   oo  +++++  oo   XXXX   oo",
"                                                                ",
"     ......      XXXX  ....   XXXX      .....       XXXX     ",
"     .oooo.      XXXX  ....   XXXX      .+++.       XXXX     ",
"     .oooo.      XXXX  ....   XXXX      .+++.       XXXX     ",
"     .oooo.      XXXX  ....   XXXX      .+++.       XXXX     ",
"     ......      XXXX  ....   XXXX      .....       XXXX     ",
"                                                                ",
"................................................................",
"XXXXXXXXXXXXXXXXXXXXXXXXXXXXXXXXXXXXXXXXXXXXXXXXXXXXXXXXXXXXXXXX",
"................................................................",
"                                                                ",
"  ++  ++++++  ++  XXXX   ++++   XXXX   ++  ooooo  ++   XXXX   ++",
"  ++  ++++++  ++  XXXX   ++++   XXXX   ++  ooooo  ++   XXXX   ++",
"  ++  ++##++  ++  XXXX   ++++   XXXX   ++  oo#oo  ++   XXXX   ++",
"  ++  ++++++  ++  XXXX   ++++   XXXX   ++  ooooo  ++   XXXX   ++",
"                                                                ",
"     ......      XXXX  ....   XXXX      .....       XXXX     ",
"     .++++.      XXXX  ....   XXXX      .ooo.       XXXX     ",
"     .++++.      XXXX  ....   XXXX      .ooo.       XXXX     ",
"     .++++.      XXXX  ....   XXXX      .ooo.       XXXX     ",
"     ......      XXXX  ....   XXXX      .....       XXXX     ",
"                                                                ",
"................................................................",
"XXXXXXXXXXXXXXXXXXXXXXXXXXXXXXXXXXXXXXXXXXXXXXXXXXXXXXXXXXXXXXXX",
"................................................................",
"                                                                ",
"  oo  oooooo  oo  XXXX   oooo   XXXX   oo  +++++  oo   XXXX   oo",
"  oo  oooooo  oo  XXXX   oooo   XXXX   oo  +++++  oo   XXXX   oo",
"  oo  oo##oo  oo  XXXX   oooo   XXXX   oo  ++#++  oo   XXXX   oo",
"  oo  oooooo  oo  XXXX   oooo   XXXX   oo  +++++  oo   XXXX   oo",
"                                                                ",
"     ......      XXXX  ....   XXXX      .....       XXXX     ",
"     .oooo.      XXXX  ....   XXXX      .+++.       XXXX     ",
"     .oooo.      XXXX  ....   XXXX      .+++.       XXXX     ",
"     .oooo.      XXXX  ....   XXXX      .+++.       XXXX     ",
"     ......      XXXX  ....   XXXX      .....       XXXX     ",
"                                                                ",
"................................................................",
"XXXXXXXXXXXXXXXXXXXXXXXXXXXXXXXXXXXXXXXXXXXXXXXXXXXXXXXXXXXXXXXX",
"................................................................",
"                                                                ",
"  ++  ++++++  ++  XXXX   ++++   XXXX   ++  ooooo  ++   XXXX   ++",
"  ++  ++++++  ++  XXXX   ++++   XXXX   ++  ooooo  ++   XXXX   ++",
"  ++  ++##++  ++  XXXX   ++++   XXXX   ++  oo#oo  ++   XXXX   ++",
"  ++  ++++++  ++  XXXX   ++++   XXXX   ++  ooooo  ++   XXXX   ++",
"                                                                ",
"     ......      XXXX  ....   XXXX      .....       XXXX     ",
"     .++++.      XXXX  ....   XXXX      .ooo.       XXXX     ",
"     .++++.      XXXX  ....   XXXX      .ooo.       XXXX     ",
"     .++++.      XXXX  ....   XXXX      .ooo.       XXXX     ",
"     ......      XXXX  ....   XXXX      .....       XXXX     ",
"                                                                "
};