/* XPM */
static char * south_xpm = {
/* <Values>: width=64 height=64 colors=5 chars_per_pixel=1 */
"64 64 5 1",
". c #3E2723", /* Dark Wood Frame */
"X c #6D4C41", /* Wood Grain Highlight */
"  c #FFFDE7", /* Shoji Paper */
"o c #D7CCC8", /* Paper Shadow */
"+ c #1B0000", /* Deep Shadow */
/* <Pixels> */
"................................................................",
".XXXXXXXXXXXXXXXXXXXXXXXXXXXXXXXXXXXXXXXXXXXXXXXXXXXXXXXXXXXXXX.",
".XX++++++++++++++++++++++++++++++++++++++++++++++++++++++++++XX.",
".XX+........................................................+XX.",
".XX+.                                                     .+XX.",
".XX+.                                                     .+XX.",
".XX+.                                                     .+XX.",
".XX+.                                                     .+XX.",
".XX+.                                                     .+XX.",
".XX+.                                                     .+XX.",
".XX+.                                                     .+XX.",
".XX+.                                                     .+XX.",
".XX+.                                                     .+XX.",
".XX+........................................................+XX.",
".XX++++++++++++++++++++++++++++++++++++++++++++++++++++++++++XX.",
".XXXXXXXXXXXXXXXXXXXXXXXXXXXXXXXXXXXXXXXXXXXXXXXXXXXXXXXXXXXXXX.",
"................................................................",
".XX.     .XX.     .XX.     .XX.     .XX.     .XX.     .XX.",
".XX.     .XX.     .XX.     .XX.     .XX.     .XX.     .XX.",
".XX.     .XX.     .XX.     .XX.     .XX.     .XX.     .XX.",
".XX.     .XX.     .XX.     .XX.     .XX.     .XX.     .XX.",
".XX.     .XX.     .XX.     .XX.     .XX.     .XX.     .XX.",
".XX.     .XX.     .XX.     .XX.     .XX.     .XX.     .XX.",
".XX........XX........XX........XX........XX........XX........XX.",
".XXXXXXXXXXXXXXXXXXXXXXXXXXXXXXXXXXXXXXXXXXXXXXXXXXXXXXXXXXXXXX.",
".XX........XX........XX........XX........XX........XX........XX.",
".XX.     .XX.     .XX.     .XX.     .XX.     .XX.     .XX.",
".XX.     .XX.     .XX.     .XX.     .XX.     .XX.     .XX.",
".XX.     .XX.     .XX.     .XX.     .XX.     .XX.     .XX.",
".XX.     .XX.     .XX.     .XX.     .XX.     .XX.     .XX.",
".XX.     .XX.     .XX.     .XX.     .XX.     .XX.     .XX.",
".XX.     .XX.     .XX.     .XX.     .XX.     .XX.     .XX.",
".XX........XX........XX........XX........XX........XX........XX.",
".XXXXXXXXXXXXXXXXXXXXXXXXXXXXXXXXXXXXXXXXXXXXXXXXXXXXXXXXXXXXXX.",
".XX........XX........XX........XX........XX........XX........XX.",
".XX.     .XX.     .XX.     .XX.     .XX.     .XX.     .XX.",
".XX.     .XX.     .XX.     .XX.     .XX.     .XX.     .XX.",
".XX.     .XX.     .XX.     .XX.     .XX.     .XX.     .XX.",
".XX.     .XX.     .XX.     .XX.     .XX.     .XX.     .XX.",
".XX.     .XX.     .XX.     .XX.     .XX.     .XX.     .XX.",
".XX.     .XX.     .XX.     .XX.     .XX.     .XX.     .XX.",
".XX........XX........XX........XX........XX........XX........XX.",
".XXXXXXXXXXXXXXXXXXXXXXXXXXXXXXXXXXXXXXXXXXXXXXXXXXXXXXXXXXXXXX.",
".XX........XX........XX........XX........XX........XX........XX.",
".XX.     .XX.     .XX.     .XX.     .XX.     .XX.     .XX.",
".XX.     .XX.     .XX.     .XX.     .XX.     .XX.     .XX.",
".XX.     .XX.     .XX.     .XX.     .XX.     .XX.     .XX.",
".XX.     .XX.     .XX.     .XX.     .XX.     .XX.     .XX.",
".XX.     .XX.     .XX.     .XX.     .XX.     .XX.     .XX.",
".XX.     .XX.     .XX.     .XX.     .XX.     .XX.     .XX.",
".XX........XX........XX........XX........XX........XX........XX.",
".XX++++++++++++++++++++++++++++++++++++++++++++++++++++++++++XX.",
".XXXXXXXXXXXXXXXXXXXXXXXXXXXXXXXXXXXXXXXXXXXXXXXXXXXXXXXXXXXXXX.",
"................................................................"
};