/* XPM */
static char * west_xpm = {
/* <Values>: width=64 height=64 colors=6 chars_per_pixel=1 */
"64 64 6 1",
/* <Colors> */
"  c #262B44", /* Deep Shadow */
". c #5A6988", /* High Stone */
"X c #3A4466", /* Mid Stone */
"o c #181425", /* Mortar */
"+ c #3E8948", /* Dark Moss */
"@ c #63C74D", /* Light Moss */
/* <Pixels> */
"oooooooooooooooooooooooooooooooooooooooooooooooooooooooooooooooo",
"oXXXXXXX..XXXXXXooXXXXXXXX..XXXXooXXXXXXX...XXXXooXXXXXXX..XXXXo",
"oXXXXXXX..XXXXXXooXXXXXXXX..XXXXooXXXXXXX...XXXXooXXXXXXX..XXXXo",
"oXX...XX..XX...XooXX...XXX..XXXXooXX...XX...XX..ooXX...XX..XX..o",
"oXX...XX..XX...XooXX...XXX..XXXXooXX...XX...XX..ooXX...XX..XX..o",
"oXXXXXXXXXXXXXXXooXXXXXXXXXXXXXXooXXXXXXXXXXXXXXooXXXXXXXXXXXXXo",
"oXXXXXXXXXXXXXXXooXXXXXXXXXXXXXXooXXXXXXXXXXXXXXooXXXXXXXXXXXXXo",
"oXXXXX++++XXXXXXooXXXXX++++XXXXXooXXXXX@@@XXXXXXooXXXXX++++XXXXo",
"oXXXX++++++XXXXXooXXXX++++++XXXXooXXXX@@@@@XXXXXooXXXX++++++XXXo",
"oXXX+++@@+++XXXXooXXX+++@@+++XXXooXXX@@@+++@@XXXooXXX+++@@+++XXo",
"oXXX+++@@+++XXXXooXXX+++@@+++XXXooXXX@@@+++@@XXXooXXX+++@@+++XXo",
"oXXXX++++++XXXXXooXXXX++++++XXXXooXXXX@@@@@XXXXXooXXXX++++++XXXo",
"oXXXXX++++XXXXXXooXXXXX++++XXXXXooXXXXX@@@XXXXXXooXXXXX++++XXXXo",
"oXXXXXXXXXXXXXXXooXXXXXXXXXXXXXXooXXXXXXXXXXXXXXooXXXXXXXXXXXXXo",
"oooooooooooooooooooooooooooooooooooooooooooooooooooooooooooooooo",
"XXXX..XXXXooXXXXXXX...XXXXooXXXXXXX..XXXXooXXXXXXX..XXXXooXXXXXX",
"XXXX..XXXXooXXXXXXX...XXXXooXXXXXXX..XXXXooXXXXXXX..XXXXooXXXXXX",
"XX...XXXXXooXX...XX...XX..ooXX...XX..XX..ooXX...XX..XX..ooXX...X",
"XX...XXXXXooXX...XX...XX..ooXX...XX..XX..ooXX...XX..XX..ooXX...X",
"XXXXXXXXXXooXXXXXXXXXXXXXXooXXXXXXXXXXXXXooXXXXXXXXXXXXXooXXXXXX",
"XXXXXXXXXXooXXXXXXXXXXXXXXooXXXXXXXXXXXXXooXXXXXXXXXXXXXooXXXXXX",
"X@@@XXXXXXooXXXXX++++XXXXXooXXXXX++++XXXXooXXXXX++++XXXXooXXXXX@",
"@@@@@XXXXXooXXXX++++++XXXXooXXXX++++++XXXooXXXX++++++XXXooXXXX@@",
"@@+++@@XXXooXXX+++@@+++XXXooXXX+++@@+++XXooXXX+++@@+++XXooXXX@@@",
"@@+++@@XXXooXXX+++@@+++XXXooXXX+++@@+++XXooXXX+++@@+++XXooXXX@@@",
"@@@@@XXXXXooXXXX++++++XXXXooXXXX++++++XXXooXXXX++++++XXXooXXXX@@",
"X@@@XXXXXXooXXXXX++++XXXXXooXXXXX++++XXXXooXXXXX++++XXXXooXXXXX@",
"XXXXXXXXXXooXXXXXXXXXXXXXXooXXXXXXXXXXXXXooXXXXXXXXXXXXXooXXXXXX",
"oooooooooooooooooooooooooooooooooooooooooooooooooooooooooooooooo",
"oXXXXXXX..XXXXXXooXXXXXXXX..XXXXooXXXXXXX...XXXXooXXXXXXX..XXXXo",
"oXXXXXXX..XXXXXXooXXXXXXXX..XXXXooXXXXXXX...XXXXooXXXXXXX..XXXXo",
"oXX...XX..XX...XooXX...XXX..XXXXooXX...XX...XX..ooXX...XX..XX..o",
"oXX...XX..XX...XooXX...XXX..XXXXooXX...XX...XX..ooXX...XX..XX..o",
"oXXXXXXXXXXXXXXXooXXXXXXXXXXXXXXooXXXXXXXXXXXXXXooXXXXXXXXXXXXXo",
"oXXXXXXXXXXXXXXXooXXXXXXXXXXXXXXooXXXXXXXXXXXXXXooXXXXXXXXXXXXXo",
"oXXXXX++++XXXXXXooXXXXX++++XXXXXooXXXXX@@@XXXXXXooXXXXX++++XXXXo",
"oXXXX++++++XXXXXooXXXX++++++XXXXooXXXX@@@@@XXXXXooXXXX++++++XXXo",
"oXXX+++@@+++XXXXooXXX+++@@+++XXXooXXX@@@+++@@XXXooXXX+++@@+++XXo",
"oXXX+++@@+++XXXXooXXX+++@@+++XXXooXXX@@@+++@@XXXooXXX+++@@+++XXo",
"oXXXX++++++XXXXXooXXXX++++++XXXXooXXXX@@@@@XXXXXooXXXX++++++XXXo",
"oXXXXX++++XXXXXXooXXXXX++++XXXXXooXXXXX@@@XXXXXXooXXXXX++++XXXXo",
"oXXXXXXXXXXXXXXXooXXXXXXXXXXXXXXooXXXXXXXXXXXXXXooXXXXXXXXXXXXXo",
"oooooooooooooooooooooooooooooooooooooooooooooooooooooooooooooooo",
"XXXX..XXXXooXXXXXXX...XXXXooXXXXXXX..XXXXooXXXXXXX..XXXXooXXXXXX",
"XXXX..XXXXooXXXXXXX...XXXXooXXXXXXX..XXXXooXXXXXXX..XXXXooXXXXXX",
"XX...XXXXXooXX...XX...XX..ooXX...XX..XX..ooXX...XX..XX..ooXX...X",
"XX...XXXXXooXX...XX...XX..ooXX...XX..XX..ooXX...XX..XX..ooXX...X",
"XXXXXXXXXXooXXXXXXXXXXXXXXooXXXXXXXXXXXXXooXXXXXXXXXXXXXooXXXXXX",
"XXXXXXXXXXooXXXXXXXXXXXXXXooXXXXXXXXXXXXXooXXXXXXXXXXXXXooXXXXXX",
"X@@@XXXXXXooXXXXX++++XXXXXooXXXXX++++XXXXooXXXXX++++XXXXooXXXXX@",
"@@@@@XXXXXooXXXX++++++XXXXooXXXX++++++XXXooXXXX++++++XXXooXXXX@@",
"@@+++@@XXXooXXX+++@@+++XXXooXXX+++@@+++XXooXXX+++@@+++XXooXXX@@@",
"@@+++@@XXXooXXX+++@@+++XXXooXXX+++@@+++XXooXXX+++@@+++XXooXXX@@@",
"@@@@@XXXXXooXXXX++++++XXXXooXXXX++++++XXXooXXXX++++++XXXooXXXX@@",
"X@@@XXXXXXooXXXXX++++XXXXXooXXXXX++++XXXXooXXXXX++++XXXXooXXXXX@",
"XXXXXXXXXXooXXXXXXXXXXXXXXooXXXXXXXXXXXXXooXXXXXXXXXXXXXooXXXXXX",
"oooooooooooooooooooooooooooooooooooooooooooooooooooooooooooooooo",
"o.......XXooXXXXXXXX..XXXXooXXXXXXX...XXXXooXXXXXXX..XXXXooXXXXo",
"o.......XXooXXXXXXXX..XXXXooXXXXXXX...XXXXooXXXXXXX..XXXXooXXXXo",
"oXX...XXXXooXX...XXX..XXXXooXX...XX...XX..ooXX...XX..XX..ooXX..o",
"oXX...XXXXooXX...XX...XX..ooXX...XX..XX..ooXX...XX..XX..ooXX..o",
"oXXXXXXXXXooXXXXXXXXXXXXXXooXXXXXXXXXXXXXXooXXXXXXXXXXXXXooXXXXo",
"oXXXXXXXXXooXXXXXXXXXXXXXXooXXXXXXXXXXXXXXooXXXXXXXXXXXXXooXXXXo"
};