/* XPM */
static char * barn_wood_xpm[] = {
"32 32 5 1 ",
". c #4A3121",
"X c #A89B5B",
"o c #4C8F35",
"+ c #4F73A6",
"@ c #D97C2B",
/* pixels */
".XXXXX..XXXXXX..XXXXX..XXXXXX.X.",
".XXXXX..XXXXXX..XXXXX..XXXXXX.X.",
".XXXXX..XXXXXX..XXXXX..XXXXXX.X.",
".XXXXX..XXXXXX..XXXXX..XXXXXX.X.",
".XXXXX..XXXXXX..XXXXX..XXXXXX.X.",
".XXXXX..XXXXXX..XXXXX..XXXXXX.X.",
"................................",
".XXXXX..XXXXXX..XXXXX..XXXXXX.X.",
".XXXXX..XXXXXX..XXXXX..XXXXXX.X.",
".XXXXX..XXXXXX..XXXXX..XXXXXX.X.",
".XXXXX..XXXXXX..XXXXX..XXXXXX.X.",
".XXXXX..XXXXXX..XXXXX..XXXXXX.X.",
".XXXXX..XXXXXX..XXXXX..XXXXXX.X.",
"................................",
".XXXXX..XXXXXX..XXXXX..XXXXXX.X.",
".XXXXX..XXXXXX..XXXXX..XXXXXX.X.",
".XXXXX..XXXXXX..XXXXX..XXXXXX.X.",
".XXXXX..XXXXXX..XXXXX..XXXXXX.X.",
".XXXXX..XXXXXX..XXXXX..XXXXXX.X.",
".XXXXX..XXXXXX..XXXXX..XXXXXX.X.",
"................................",
".XXXXX..XXXXXX..XXXXX..XXXXXX.X.",
".XXXXX..XXXXXX..XXXXX..XXXXXX.X.",
".XXXXX..XXXXXX..XXXXX..XXXXXX.X.",
".XXXXX..XXXXXX..XXXXX..XXXXXX.X.",
".XXXXX..XXXXXX..XXXXX..XXXXXX.X.",
".XXXXX..XXXXXX..XXXXX..XXXXXX.X.",
"................................",
"oXXXXXooXXXXXXooXXXXXooXXXXXXoXo",
"ooXXXoooXXXXXoooXXXXoooXXXXXooXo",
".ooXoo..ooXooo..ooXoo..ooXooo.X.",
"..ooo....ooo.....ooo....ooo....."
};