/* XPM */
static char *nether_lava_xpm[] = {
/* columns rows colors chars-per-pixel */
"32 32 3 1 ",
"  c #D35400", /* Orange foncé (bords) */
". c #F39C12", /* Orange vif (flux) */
"X c #F1C40F", /* Jaune (coeur chaud) */
/* pixels */
"  ..XX..  ..XX..  ..XX..  ..XX..",
" ..XXXX.. ..XXXX.. ..XXXX.. ..XX",
".XXXXXX. .XXXXXX. .XXXXXX. .XXXX",
".XXXXX.. .XXXXX.. .XXXXX.. .XXXX",
" ..X...   ..X...   ..X...   ..X.",
"   . .      . .      . .      . ",
"  ..XX..  ..XX..  ..XX..  ..XX..",
" ..XXXX.. ..XXXX.. ..XXXX.. ..XX",
".XXXXXX. .XXXXXX. .XXXXXX. .XXXX",
".XXXXX.. .XXXXX.. .XXXXX.. .XXXX",
" ..X...   ..X...   ..X...   ..X.",
"   . .      . .      . .      . ",
"  ..XX..  ..XX..  ..XX..  ..XX..",
" ..XXXX.. ..XXXX.. ..XXXX.. ..XX",
".XXXXXX. .XXXXXX. .XXXXXX. .XXXX",
".XXXXX.. .XXXXX.. .XXXXX.. .XXXX",
" ..X...   ..X...   ..X...   ..X.",
"   . .      . .      . .      . ",
"  ..XX..  ..XX..  ..XX..  ..XX..",
" ..XXXX.. ..XXXX.. ..XXXX.. ..XX",
".XXXXXX. .XXXXXX. .XXXXXX. .XXXX",
".XXXXX.. .XXXXX.. .XXXXX.. .XXXX",
" ..X...   ..X...   ..X...   ..X.",
"   . .      . .      . .      . ",
"  ..XX..  ..XX..  ..XX..  ..XX..",
" ..XXXX.. ..XXXX.. ..XXXX.. ..XX",
".XXXXXX. .XXXXXX. .XXXXXX. .XXXX",
".XXXXX.. .XXXXX.. .XXXXX.. .XXXX",
" ..X...   ..X...   ..X...   ..X.",
"   . .      . .      . .      . ",
"  ..XX..  ..XX..  ..XX..  ..XX..",
" ..XXXX.. ..XXXX.. ..XXXX.. ..XX"
};