/* XPM */
static char * hay_bales_xpm[] = {
"32 32 5 1 ",
". c #4A3121",
"X c #A67B5B",
"o c #4C8F35",
"+ c #4F73A6",
"@ c #D97C2B",
/* pixels */
"................................",
".@@@@X@@@X@@@X...X@@@X@@@X@@@@X.",
".@@@X@@@X@@@X@...@@@X@@@X@@@X@@.",
".@@X@@@X@@@X@@...@@X@@@X@@@X@@@.",
".@X@@@X@@@X@@@...@@X@@@X@@@X@@@.",
".@@@@X@@@X@@@X...X@@@X@@@X@@@@X.",
"................................",
"....X@@@X@@@X@@@@X..X@@@X@@@X...",
"...X@@@X@@@X@@@X@@.X@@@X@@@X@@..",
"...@@X@@@X@@@X@@@X.@@X@@@X@@@X..",
"...@@X@@@X@@@X@@@X.@@X@@@X@@@X..",
"....X@@@X@@@X@@@@X..X@@@X@@@X...",
"................................",
".@@@@X@@@X@@@X...X@@@X@@@X@@@@X.",
".@@@X@@@X@@@X@...@@@X@@@X@@@X@@.",
".@@X@@@X@@@X@@...@@X@@@X@@@X@@@.",
".@X@@@X@@@X@@@...@@X@@@X@@@X@@@.",
".@@@@X@@@X@@@X...X@@@X@@@X@@@@X.",
"................................",
"....X@@@X@@@X@@@@X..X@@@X@@@X...",
"...X@@@X@@@X@@@X@@.X@@@X@@@X@@..",
"...@@X@@@X@@@X@@@X.@@X@@@X@@@X..",
"...@@X@@@X@@@X@@@X.@@X@@@X@@@X..",
"....X@@@X@@@X@@@@X..X@@@X@@@X...",
"................................",
".@@@@X@@@X@@@X...X@@@X@@@X@@@@X.",
".@@@X@@@X@@@X@...@@@X@@@X@@@X@@.",
".@@X@@@X@@@X@@...@@X@@@X@@@X@@@.",
".@X@@@X@@@X@@@...@@X@@@X@@@X@@@.",
".@@@@X@@@X@@@X...X@@@X@@@X@@@@X.",
"................................",
"................................"
};