/* XPM */
static char * crop_hedge_xpm[] = {
"32 32 5 1 ",
". c #4A3121",
"X c #A67B5B",
"o c #4C8F35",
"+ c #4F73A6",
"@ c #D97C2B",
/* pixels */
"oooooooooooooooooooooooooooooooo",
"oo.oooooo.ooooooo.oooooo.oooo.oo",
"oooooo.oooooo.ooooooo.ooooo.oooo",
"ooo@oooooo@oooooo@oooooo@ooooooo",
"oooooooooooooooooooooooooooooooo",
"oo.oooooo.ooooooo.oooooo.oooo.oo",
"oooooo.oooooo.ooooooo.ooooo.oooo",
"oooooooooooooooooooooooooooooooo",
"ooo@oooooo@oooooo@oooooo@ooooooo",
"oo.oooooo.ooooooo.oooooo.oooo.oo",
"oooooo.oooooo.ooooooo.ooooo.oooo",
"oooooooooooooooooooooooooooooooo",
"oo.oooooo.ooooooo.oooooo.oooo.oo",
"oooooo.oooooo.ooooooo.ooooo.oooo",
"ooo@oooooo@oooooo@oooooo@ooooooo",
"oooooooooooooooooooooooooooooooo",
"oo.oooooo.ooooooo.oooooo.oooo.oo",
"oooooo.oooooo.ooooooo.ooooo.oooo",
"oooooooooooooooooooooooooooooooo",
"ooo@oooooo@oooooo@oooooo@ooooooo",
"oo.oooooo.ooooooo.oooooo.oooo.oo",
"oooooo.oooooo.ooooooo.ooooo.oooo",
"oooooooooooooooooooooooooooooooo",
"oo.oooooo.ooooooo.oooooo.oooo.oo",
"oooooo.oooooo.ooooooo.ooooo.oooo",
"ooXoooXoooXoooXoooXoooXoooXoooXo",
"ooXoooXoooXoooXoooXoooXoooXoooXo",
"ooX.ooX.ooX.ooX.ooX.ooX.ooX.ooX.",
".XX..XX..XX..XX..XX..XX..XX..XX.",
"................................",
"................................",
"................................"
};